lib/brands/icons/google-admob.svg

<svg xmlns="http://www.w3.org/2000/svg" fill="none" aria-hidden="true" viewBox="0 0 48 48"><g id="google-admob-Icon"><g id="Group"><path id="Vector" fill="#FBBC04" d="M23.2705 8.0512C23.7313 8.0128 24.1793 8 24.6401 8C32.9729 8.3072 39.6672 14.9888 40 23.3215V35.9039C39.9872 38.1823 38.1312 40.0127 35.8657 39.9999C33.7921 39.6799 32.2049 37.9903 32.0129 35.9039V23.3215C31.6673 18.9312 27.8273 15.6416 23.4369 15.9872C23.3857 15.9872 23.3345 16 23.2833 16"/><path id="Vector_2" fill="#4285F4" d="M39.9999 35.9935C39.9999 38.1951 38.2079 39.9871 36.0063 39.9871C33.8047 39.9871 32.0127 38.1951 32.0127 35.9935C32.0127 33.7919 33.8047 31.9999 36.0063 31.9999C38.2079 31.9999 39.9999 33.7919 39.9999 35.9935Z"/><path id="Vector_3" fill="#EA4335" d="M23.5007 39.8591C25.7663 39.8847 27.6223 38.0799 27.6479 35.8143C27.6479 35.8015 27.6479 35.8015 27.6479 35.7887C27.5839 33.5871 25.7407 31.8463 23.5391 31.9103C23.5135 31.9103 23.4751 31.9103 23.4495 31.9103C19.0848 31.5775 15.7952 27.7887 16.1024 23.4112V23.3472C16.4224 19.4048 19.5584 16.2944 23.5007 16C25.7023 16.0896 27.5583 14.3744 27.6479 12.1728C27.6479 12.1472 27.6479 12.1344 27.6479 12.1088C27.6223 9.84322 25.7663 8.01283 23.5007 8.03816H23.2191C14.7328 8.43523 8.0512 15.3984 8 23.8976V23.9616C8 33.9327 16.7424 39.8719 23.2575 39.8719H23.5007V39.8591Z"/></g></g></svg>

<svg xmlns="http://www.w3.org/2000/svg" fill="none" aria-hidden="true" viewBox="0 0 48 48"><path fill="#FBBC04" d="M23.27 8.051c.461-.038.91-.051 1.37-.051 8.333.307 15.027 6.989 15.36 15.322v12.582A4.116 4.116 0 0 1 35.866 40a4.568 4.568 0 0 1-3.853-4.096V23.32c-.346-4.39-4.186-7.68-8.576-7.334-.051 0-.103.013-.154.013"/><path fill="#4285F4" d="M40 35.993a3.999 3.999 0 0 1-3.994 3.994 3.999 3.999 0 0 1-3.993-3.994A3.999 3.999 0 0 1 36.006 32 3.999 3.999 0 0 1 40 35.993Z"/><path fill="#EA4335" d="M23.5 39.86a4.092 4.092 0 0 0 4.148-4.046v-.025a4 4 0 0 0-4.109-3.879h-.09c-4.364-.332-7.654-4.121-7.347-8.499v-.064A8.013 8.013 0 0 1 23.501 16a3.99 3.99 0 0 0 4.147-3.827v-.064c-.026-2.266-1.882-4.096-4.147-4.07h-.282C14.733 8.434 8.051 15.398 8 23.897v.064c0 9.97 8.742 15.91 15.258 15.91h.243v-.013Z"/></svg>
